X:44
T:Duke of Glocester's new March
S:John Moore's Book 1
Z:Transcribed by David Jacobs  April 2021
%%VWML: Moore1-4493-p28-0
F:http://www.vwml.org/record/Moore1/4493/p28
M:C
L:1/8
K:D
z (A/B/c/)|!trill!d>c!trill!d>c !trill!d>c!trill!d>c|e>dc>B A2g2|f>af>d e>ge>c|
d2d>dd2d>e|(f2f)>e d>cB>A|A2^G2A2d2|c>ec>A B>dB^G|A2A>AA2:|
z(A/B/c/)|(d2d)>f a>fd>A|B2G>GG2e>f|(g2g)>fe2d2|c2A>AA2z(A/B/c/)|
!trill!d>c!trill!d>c !trill!d>c!trill!d>f| e>dc>BA2g2|f>af>B e>ge>c|d2d>dd2:|

